assets/components_previews/forms/dark/text_area.svg

<svg xmlns="http://www.w3.org/2000/svg" width="320" height="232" fill="none" viewBox="0 0 320 232"><g filter="url(#a)"><rect width="162" height="72" x="79" y="80" fill="#0E0F10" rx="8"/><path fill="#5F43D0" d="M94.626 101v-8.428h-3.29V90.92h8.736v1.652h-3.29V101zm8.165.14c-2.38 0-3.92-1.512-3.92-3.71 0-2.212 1.554-3.71 3.85-3.71 2.212 0 3.626 1.428 3.626 3.57 0 .308-.028.546-.056.77h-5.292c.14 1.064.742 1.568 1.778 1.568.672 0 1.162-.21 1.414-.714h1.974c-.476 1.386-1.596 2.226-3.374 2.226m-.098-5.908c-.882 0-1.47.476-1.666 1.442h3.192c-.084-.98-.644-1.442-1.526-1.442m8.915 5.768-1.54-2.282-1.624 2.282h-2.282l2.87-3.738-2.576-3.402h2.352l1.344 2.002 1.4-2.002h2.296l-2.66 3.472L113.96 101zm6.693.154c-1.834 0-2.702-.868-2.702-2.688v-3.01h-1.33V93.86h1.33v-1.596l2.1-.784v2.38h1.848v1.596h-1.848v3.08c0 .644.35.952 1.092.952.28 0 .518-.056.756-.14v1.596c-.252.14-.7.21-1.246.21m4.195-.014c-1.414 0-2.324-.77-2.324-1.974 0-1.33 1.05-2.142 2.842-2.394l1.764-.252v-.364c0-.574-.392-.924-1.134-.924-.714 0-1.134.252-1.26.714h-2.002c.182-1.288 1.344-2.226 3.332-2.226 2.044 0 3.164.938 3.164 2.66v3.15c0 .476.056.924.21 1.47h-2.1c-.098-.336-.14-.7-.154-1.162-.448.854-1.26 1.302-2.338 1.302m-.224-2.254c0 .462.364.714.924.714.882 0 1.582-.56 1.582-1.19v-.658l-1.414.21c-.756.112-1.092.406-1.092.924m6.045 2.114v-7.14h2.058v1.316c.392-.952 1.12-1.456 2.114-1.456.154 0 .294.014.392.056v1.96a2 2 0 0 0-.504-.042c-1.344 0-1.96.42-1.96 1.582V101zm8.653.14c-2.38 0-3.92-1.512-3.92-3.71 0-2.212 1.554-3.71 3.85-3.71 2.212 0 3.626 1.428 3.626 3.57 0 .308-.028.546-.056.77h-5.292c.14 1.064.742 1.568 1.778 1.568.672 0 1.162-.21 1.414-.714h1.974c-.476 1.386-1.596 2.226-3.374 2.226m-.098-5.908c-.882 0-1.47.476-1.666 1.442h3.192c-.084-.98-.644-1.442-1.526-1.442m6.454 5.908c-1.414 0-2.324-.77-2.324-1.974 0-1.33 1.05-2.142 2.842-2.394l1.764-.252v-.364c0-.574-.392-.924-1.134-.924-.714 0-1.134.252-1.26.714h-2.002c.182-1.288 1.344-2.226 3.332-2.226 2.044 0 3.164.938 3.164 2.66v3.15c0 .476.056.924.21 1.47h-2.1c-.098-.336-.14-.7-.154-1.162-.448.854-1.26 1.302-2.338 1.302m-.224-2.254c0 .462.364.714.924.714.882 0 1.582-.56 1.582-1.19v-.658l-1.414.21c-.756.112-1.092.406-1.092.924"/><path stroke="#4329AC" stroke-linecap="round" stroke-width="2" d="M150 89v14"/></g><path stroke="#4329AC" stroke-linecap="round" d="M238 143.707 232.707 149M238 138.707 227.707 149"/><defs><filter id="a" width="202" height="112" x="59" y="72" color-interpolation-filters="sRGB" filterUnits="userSpaceOnUse"><feFlood flood-opacity="0" result="BackgroundImageFix"/><feColorMatrix in="SourceAlpha" result="hardAlpha" values="0 0 0 0 0 0 0 0 0 0 0 0 0 0 0 0 0 0 127 0"/><feOffset dy="12"/><feGaussianBlur stdDeviation="10"/><feComposite in2="hardAlpha" operator="out"/><feColorMatrix values="0 0 0 0 0 0 0 0 0 0 0 0 0 0 0 0 0 0 0.03 0"/><feBlend in2="BackgroundImageFix" result="effect1_dropShadow_10159_3338"/><feColorMatrix in="SourceAlpha" result="hardAlpha" values="0 0 0 0 0 0 0 0 0 0 0 0 0 0 0 0 0 0 127 0"/><feOffset dy="2"/><feGaussianBlur stdDeviation="3"/><feComposite in2="hardAlpha" operator="out"/><feColorMatrix values="0 0 0 0 0 0 0 0 0 0 0 0 0 0 0 0 0 0 0.05 0"/><feBlend in2="effect1_dropShadow_10159_3338" result="effect2_dropShadow_10159_3338"/><feBlend in="SourceGraphic" in2="effect2_dropShadow_10159_3338" result="shape"/></filter></defs></svg>

<svg width="320" height="232" viewBox="0 0 320 232" fill="none" xmlns="http://www.w3.org/2000/svg">
<g filter="url(#filter0_dd_10159_3338)">
<rect x="79" y="80" width="162" height="72" rx="8" fill="#0E0F10"/>
<path d="M94.626 101V92.572H91.336V90.92H100.072V92.572H96.782V101H94.626ZM102.791 101.14C100.411 101.14 98.8706 99.628 98.8706 97.43C98.8706 95.218 100.425 93.72 102.721 93.72C104.933 93.72 106.347 95.148 106.347 97.29C106.347 97.598 106.319 97.836 106.291 98.06H100.999C101.139 99.124 101.741 99.628 102.777 99.628C103.449 99.628 103.939 99.418 104.191 98.914H106.165C105.689 100.3 104.569 101.14 102.791 101.14ZM102.693 95.232C101.811 95.232 101.223 95.708 101.027 96.674H104.219C104.135 95.694 103.575 95.232 102.693 95.232ZM111.608 101L110.068 98.718L108.444 101H106.162L109.032 97.262L106.456 93.86H108.808L110.152 95.862L111.552 93.86H113.848L111.188 97.332L113.96 101H111.608ZM118.301 101.154C116.467 101.154 115.599 100.286 115.599 98.466V95.456H114.269V93.86H115.599V92.264L117.699 91.48V93.86H119.547V95.456H117.699V98.536C117.699 99.18 118.049 99.488 118.791 99.488C119.071 99.488 119.309 99.432 119.547 99.348V100.944C119.295 101.084 118.847 101.154 118.301 101.154ZM122.496 101.14C121.082 101.14 120.172 100.37 120.172 99.166C120.172 97.836 121.222 97.024 123.014 96.772L124.778 96.52V96.156C124.778 95.582 124.386 95.232 123.644 95.232C122.93 95.232 122.51 95.484 122.384 95.946H120.382C120.564 94.658 121.726 93.72 123.714 93.72C125.758 93.72 126.878 94.658 126.878 96.38V99.53C126.878 100.006 126.934 100.454 127.088 101H124.988C124.89 100.664 124.848 100.3 124.834 99.838C124.386 100.692 123.574 101.14 122.496 101.14ZM122.272 98.886C122.272 99.348 122.636 99.6 123.196 99.6C124.078 99.6 124.778 99.04 124.778 98.41V97.752L123.364 97.962C122.608 98.074 122.272 98.368 122.272 98.886ZM128.317 101V93.86H130.375V95.176C130.767 94.224 131.495 93.72 132.489 93.72C132.643 93.72 132.783 93.734 132.881 93.776V95.736C132.783 95.708 132.615 95.694 132.377 95.694C131.033 95.694 130.417 96.114 130.417 97.276V101H128.317ZM136.97 101.14C134.59 101.14 133.05 99.628 133.05 97.43C133.05 95.218 134.604 93.72 136.9 93.72C139.112 93.72 140.526 95.148 140.526 97.29C140.526 97.598 140.498 97.836 140.47 98.06H135.178C135.318 99.124 135.92 99.628 136.956 99.628C137.628 99.628 138.118 99.418 138.37 98.914H140.344C139.868 100.3 138.748 101.14 136.97 101.14ZM136.872 95.232C135.99 95.232 135.402 95.708 135.206 96.674H138.398C138.314 95.694 137.754 95.232 136.872 95.232ZM143.326 101.14C141.912 101.14 141.002 100.37 141.002 99.166C141.002 97.836 142.052 97.024 143.844 96.772L145.608 96.52V96.156C145.608 95.582 145.216 95.232 144.474 95.232C143.76 95.232 143.34 95.484 143.214 95.946H141.212C141.394 94.658 142.556 93.72 144.544 93.72C146.588 93.72 147.708 94.658 147.708 96.38V99.53C147.708 100.006 147.764 100.454 147.918 101H145.818C145.72 100.664 145.678 100.3 145.664 99.838C145.216 100.692 144.404 101.14 143.326 101.14ZM143.102 98.886C143.102 99.348 143.466 99.6 144.026 99.6C144.908 99.6 145.608 99.04 145.608 98.41V97.752L144.194 97.962C143.438 98.074 143.102 98.368 143.102 98.886Z" fill="#5F43D0"/>
<line x1="150" y1="89" x2="150" y2="103" stroke="#4329AC" stroke-width="2" stroke-linecap="round"/>
</g>
<line x1="238" y1="143.707" x2="232.707" y2="149" stroke="#4329AC" stroke-linecap="round"/>
<line x1="238" y1="138.707" x2="227.707" y2="149" stroke="#4329AC" stroke-linecap="round"/>
<defs>
<filter id="filter0_dd_10159_3338" x="59" y="72" width="202" height="112" filterUnits="userSpaceOnUse" color-interpolation-filters="sRGB">
<feFlood flood-opacity="0" result="BackgroundImageFix"/>
<feColorMatrix in="SourceAlpha" type="matrix" values="0 0 0 0 0 0 0 0 0 0 0 0 0 0 0 0 0 0 127 0" result="hardAlpha"/>
<feOffset dy="12"/>
<feGaussianBlur stdDeviation="10"/>
<feComposite in2="hardAlpha" operator="out"/>
<feColorMatrix type="matrix" values="0 0 0 0 0 0 0 0 0 0 0 0 0 0 0 0 0 0 0.03 0"/>
<feBlend mode="normal" in2="BackgroundImageFix" result="effect1_dropShadow_10159_3338"/>
<feColorMatrix in="SourceAlpha" type="matrix" values="0 0 0 0 0 0 0 0 0 0 0 0 0 0 0 0 0 0 127 0" result="hardAlpha"/>
<feOffset dy="2"/>
<feGaussianBlur stdDeviation="3"/>
<feComposite in2="hardAlpha" operator="out"/>
<feColorMatrix type="matrix" values="0 0 0 0 0 0 0 0 0 0 0 0 0 0 0 0 0 0 0.05 0"/>
<feBlend mode="normal" in2="effect1_dropShadow_10159_3338" result="effect2_dropShadow_10159_3338"/>
<feBlend mode="normal" in="SourceGraphic" in2="effect2_dropShadow_10159_3338" result="shape"/>
</filter>
</defs>
</svg>
